; generated by PrusaSlicer 2.4.1+win64 on 2023-02-24 at 08:43:48 UTC

; 

; external perimeters extrusion width = 0.60mm
; perimeters extrusion width = 0.50mm
; infill extrusion width = 0.50mm
; solid infill extrusion width = 0.50mm
; top infill extrusion width = 0.45mm
; first layer extrusion width = 0.42mm

; external perimeters extrusion width = 0.60mm
; perimeters extrusion width = 0.50mm
; infill extrusion width = 0.50mm
; solid infill extrusion width = 0.50mm
; top infill extrusion width = 0.45mm
; first layer extrusion width = 0.42mm

; external perimeters extrusion width = 0.60mm
; perimeters extrusion width = 0.50mm
; infill extrusion width = 0.50mm
; solid infill extrusion width = 0.50mm
; top infill extrusion width = 0.45mm
; first layer extrusion width = 0.42mm

; external perimeters extrusion width = 0.60mm
; perimeters extrusion width = 0.50mm
; infill extrusion width = 0.50mm
; solid infill extrusion width = 0.50mm
; top infill extrusion width = 0.45mm
; first layer extrusion width = 0.42mm

; external perimeters extrusion width = 0.60mm
; perimeters extrusion width = 0.50mm
; infill extrusion width = 0.50mm
; solid infill extrusion width = 0.50mm
; top infill extrusion width = 0.45mm
; first layer extrusion width = 0.42mm

; external perimeters extrusion width = 0.60mm
; perimeters extrusion width = 0.50mm
; infill extrusion width = 0.50mm
; solid infill extrusion width = 0.50mm
; top infill extrusion width = 0.45mm
; first layer extrusion width = 0.42mm

; external perimeters extrusion width = 0.60mm
; perimeters extrusion width = 0.50mm
; infill extrusion width = 0.50mm
; solid infill extrusion width = 0.50mm
; top infill extrusion width = 0.45mm
; first layer extrusion width = 0.42mm

M73 P0 R6
M73 Q0 S6
M201 X1000 Y1000 Z200 E5000 ; sets maximum accelerations, mm/sec^2
M203 X200 Y200 Z12 E120 ; sets maximum feedrates, mm / sec
M204 P1250 R1250 T1250 ; sets acceleration (P, T) and retract acceleration (R), mm/sec^2
M205 X8.00 Y8.00 Z0.40 E4.50 ; sets the jerk limits, mm/sec
M205 S0 T0 ; sets the minimum extruding and travel feed rate, mm/sec
M107
;TYPE:Custom
M862.3 P "MK3S" ; printer model check
M862.1 P0.4 ; nozzle diameter check
M115 U3.10.1 ; tell printer latest fw version
G90 ; use absolute coordinates
M83 ; extruder relative mode
M104 S215 ; set extruder temp
M140 S60 ; set bed temp
M190 S60 ; wait for bed temp
M109 S215 ; wait for extruder temp
G28 W ; home all without mesh bed level
G80 ; mesh bed leveling
G1 Z0.2 F720
G1 Y-3 F1000 ; go outside print area
G92 E0
G1 X60 E9 F1000 ; intro line
G1 X100 E12.5 F1000 ; intro line
G92 E0
M221 S95

; Don't change E values below. Excessive value can damage the printer.

M907 E538 ; set extruder motor current
G21 ; set units to millimeters
G90 ; use absolute coordinates
M83 ; use relative distances for extrusion
M900 K0.05 ; Filament gcode LA 1.5
M900 K30 ; Filament gcode LA 1.0
M107
;LAYER_CHANGE
;Z:0.2
;HEIGHT:0.2
;BEFORE_LAYER_CHANGE
G92 E0.0
;0.2


M73 P1 R6
M73 Q1 S6
G1 E-.8 F2100
G1 Z.4 F720
;AFTER_LAYER_CHANGE
;0.2
G1 X100.273 Y90.681 F10800
G1 Z.2 F720
G1 E.8 F2100
M204 S800
;TYPE:Skirt/Brim
;WIDTH:0.42
G1 F1200
G1 X103.592 Y87.407 E.14617
G1 X110.361 Y82.445 E.26316
M73 Q2 S6
G1 X111.99 Y81.912 E.05372
M73 P2 R6
G1 X117.99 Y81.912 E.18813
G1 X119.493 Y82.358 E.04916
G1 X127.861 Y87.809 E.31312
G1 X128.834 Y88.911 E.04612
G1 X129.112 Y90.116 E.03878
G1 X129.076 Y93.56 E.10798
G1 X126.754 Y107.787 E.45197
G1 X125.984 Y109.291 E.05299
G1 X122.984 Y112.291 E.13303
G1 X121.036 Y113.097 E.06609
G1 X117.637 Y113.068 E.10657
G1 X102.188 Y110.807 E.48957
G1 X100.842 Y110.213 E.04612
M73 Q3 S6
G1 X99.994 Y109.012 E.04612
G1 X99.834 Y108.189 E.02629
M73 P3 R6
G1 X99.469 Y98.735 E.29664
G1 X99.467 Y92.628 E.19146
G1 X100.25 Y90.736 E.06421
M204 S1000
G1 X100.54 Y90.947 F10800
M204 S800
G1 F1200
G1 X103.815 Y87.711 E.14437
G1 X110.584 Y82.749 E.26316
G1 X111.99 Y82.289 E.04637
G1 X117.99 Y82.289 E.18813
G1 X119.287 Y82.674 E.04243
G1 X127.655 Y88.125 E.31312
G1 X128.537 Y89.166 E.04278
G1 X128.735 Y90.116 E.03044
G1 X128.704 Y93.499 E.10607
G1 X126.382 Y107.726 E.45197
G1 X125.717 Y109.024 E.04573
M73 Q4 S6
G1 X122.717 Y112.024 E.13303
M73 P3 R5
G1 X121.036 Y112.72 E.05704
M73 P4 R5
G1 X117.692 Y112.695 E.10486
G1 X102.242 Y110.434 E.48957
G1 X101.006 Y109.857 E.04278
M73 Q4 S5
G1 X100.211 Y108.174 E.05837
G1 X99.846 Y98.72 E.29664
G1 X99.844 Y92.628 E.19101
G1 X100.517 Y91.003 E.05516
M204 S1000
; printing object bausteinL.stl id:1 copy 0
;WIPE_START
G1 F8640
G1 X102.847 Y88.678 E-.76
;WIPE_END
G1 E-.04 F2100
G1 Z.6 F720
G1 X122.571 Y92.329 F10800
G1 Z.2 F720
G1 E.8 F2100
M204 S800
;TYPE:Perimeter
G1 F1200
G1 X122.571 Y98.329 E.18813
G1 X121.145 Y98.329 E.04471
G1 X121.145 Y90.903 E.23283
G1 X125.571 Y90.903 E.13877
M73 Q5 S5
G1 X125.571 Y92.329 E.04471
M73 P5 R5
G1 X122.631 Y92.329 E.09218
M204 S1000
G1 X122.948 Y92.706 F10800
M204 S800
;TYPE:External perimeter
G1 F1200
G1 X122.948 Y98.706 E.18813
G1 X120.768 Y98.706 E.06835
G1 X120.768 Y90.526 E.25648
G1 X125.948 Y90.526 E.16242
G1 X125.948 Y92.706 E.06835
G1 X123.008 Y92.706 E.09218
M204 S1000
G1 X122.557 Y92.79 F10800
;WIPE_START
G1 F8640
G1 X122.975 Y95.998 E-.76
;WIPE_END
G1 E-.04 F2100
G1 Z.6 F720
G1 X125.458 Y91.799 F10800
G1 Z.2 F720
G1 E.8 F2100
M204 S800
;TYPE:Solid infill
;WIDTH:0.429291
G1 F1200
G1 X124.845 Y91.186 E.02782
G1 X124.299 Y91.186 E.01755
G1 X125.159 Y92.047 E.03908
G1 X124.613 Y92.047 E.01755
G1 X123.752 Y91.186 E.03908
G1 X123.206 Y91.186 E.01755
G1 X124.066 Y92.047 E.03908
G1 X123.52 Y92.047 E.01755
G1 X122.66 Y91.186 E.03908
G1 X122.113 Y91.186 E.01755
G1 X122.973 Y92.047 E.03908
G1 X122.427 Y92.047 E.01755
G1 X121.567 Y91.186 E.03908
G1 X121.428 Y91.186 E.00447
G1 X121.428 Y91.593 E.01308
G1 X122.288 Y92.454 E.03908
G1 X122.288 Y93 E.01755
G1 X121.428 Y92.14 E.03908
G1 X121.428 Y92.686 E.01755
G1 X122.288 Y93.547 E.03908
G1 X122.288 Y94.093 E.01755
G1 X121.428 Y93.233 E.03908
G1 X121.428 Y93.779 E.01755
G1 X122.288 Y94.639 E.03908
G1 X122.288 Y95.186 E.01755
G1 X121.428 Y94.326 E.03908
G1 X121.428 Y94.872 E.01755
G1 X122.288 Y95.732 E.03908
G1 X122.288 Y96.279 E.01755
M73 Q6 S5
G1 X121.428 Y95.418 E.03908
G1 X121.428 Y95.965 E.01755
G1 X122.288 Y96.825 E.03908
G1 X122.288 Y97.371 E.01755
G1 X121.428 Y96.511 E.03908
G1 X121.428 Y97.058 E.01755
M73 P6 R5
G1 X122.288 Y97.918 E.03908
G1 X122.288 Y98.047 E.00413
G1 X121.87 Y98.047 E.01342
G1 X121.258 Y97.434 E.02781
M204 S1000
; stop printing object bausteinL.stl id:1 copy 0
; printing object bausteinrechts.stl id:4 copy 0
;WIPE_START
G1 F8640
G1 X121.87 Y98.047 E-.1999
G1 X122.288 Y98.047 E-.09646
G1 X122.288 Y97.918 E-.02971
G1 X121.428 Y97.058 E-.28091
G1 X121.428 Y96.511 E-.12617
G1 X121.51 Y96.593 E-.02685
;WIPE_END
G1 E-.04 F2100
G1 Z.6 F720
G1 X117.203 Y89.879 F10800
G1 Z.2 F720
G1 E.8 F2100
M204 S800
;TYPE:Perimeter
;WIDTH:0.42
G1 F1200
G1 X115.777 Y89.879 E.04471
G1 X115.777 Y86.879 E.09406
G1 X112.777 Y86.879 E.09406
G1 X112.777 Y85.453 E.04471
G1 X117.203 Y85.453 E.13877
G1 X117.203 Y89.819 E.13689
M204 S1000
G1 X117.58 Y90.256 F10800
M204 S800
;TYPE:External perimeter
G1 F1200
G1 X115.4 Y90.256 E.06835
G1 X115.4 Y87.256 E.09406
G1 X112.4 Y87.256 E.09406
G1 X112.4 Y85.076 E.06835
G1 X117.58 Y85.076 E.16242
G1 X117.58 Y90.196 E.16053
M204 S1000
G1 X117.193 Y90.152 F10800
;WIPE_START
G1 F8640
G1 X115.4 Y90.256 E-.50356
G1 X115.4 Y89.145 E-.25644
;WIPE_END
G1 E-.04 F2100
G1 Z.6 F720
G1 X117.089 Y86.35 F10800
G1 Z.2 F720
G1 E.8 F2100
M204 S800
;TYPE:Solid infill
;WIDTH:0.430036
G1 F1200
G1 X116.476 Y85.736 E.02794
G1 X115.928 Y85.736 E.01762
G1 X116.92 Y86.727 E.04514
G1 X116.92 Y87.275 E.01762
G1 X115.381 Y85.736 E.07006
M73 Q7 S5
G1 X114.833 Y85.736 E.01762
G1 X115.693 Y86.596 E.03916
G1 X116.06 Y86.596 E.01178
G1 X116.06 Y86.962 E.01178
G1 X117.089 Y87.992 E.04688
M204 S1000
;WIPE_START
G1 F8640
M73 P7 R5
G1 X116.06 Y86.962 E-.33632
G1 X116.06 Y86.596 E-.08453
G1 X115.693 Y86.596 E-.08453
G1 X114.914 Y85.816 E-.25462
;WIPE_END
G1 E-.04 F2100
G1 Z.6 F720
G1 X115.89 Y87.34 F10800
G1 Z.2 F720
G1 E.8 F2100
M204 S800
G1 F1200
G1 X116.92 Y88.37 E.04688
G1 X116.92 Y88.917 E.01762
G1 X116.06 Y88.057 E.03916
G1 X116.06 Y88.605 E.01762
G1 X116.92 Y89.465 E.03916
G1 X116.92 Y89.596 E.00423
G1 X116.504 Y89.596 E.0134
G1 X115.89 Y88.982 E.02794
M204 S1000
;WIPE_START
G1 F8640
G1 X116.504 Y89.596 E-.20041
G1 X116.92 Y89.596 E-.0961
G1 X116.92 Y89.465 E-.03031
G1 X116.06 Y88.605 E-.28091
G1 X116.06 Y88.057 E-.12641
G1 X116.139 Y88.136 E-.02585
;WIPE_END
G1 E-.04 F2100
G1 Z.6 F720
G1 X115.316 Y86.766 F10800
G1 Z.2 F720
G1 E.8 F2100
M204 S800
G1 F1200
G1 X114.286 Y85.736 E.04688
G1 X113.738 Y85.736 E.01762
G1 X114.599 Y86.596 E.03916
G1 X114.051 Y86.596 E.01762
G1 X113.191 Y85.736 E.03916
G1 X113.06 Y85.736 E.00423
G1 X113.06 Y86.152 E.0134
G1 X113.673 Y86.766 E.02794
M204 S1000
; stop printing object bausteinrechts.stl id:4 copy 0
; printing object bausteinLklein.stl id:3 copy 0
;WIPE_START
G1 F8640
G1 X113.06 Y86.152 E-.20041
G1 X113.06 Y85.736 E-.0961
G1 X113.191 Y85.736 E-.03031
G1 X114.051 Y86.596 E-.28091
G1 X114.599 Y86.596 E-.12641
G1 X114.519 Y86.517 E-.02586
;WIPE_END
G1 E-.04 F2100
G1 Z.6 F720
G1 X113.354 Y93.347 F10800
G1 Z.2 F720
G1 E.8 F2100
M204 S800
;TYPE:Perimeter
;WIDTH:0.42
G1 F1200
G1 X113.354 Y96.347 E.09406
G1 X116.354 Y96.347 E.09406
G1 X116.354 Y97.773 E.04471
G1 X111.928 Y97.773 E.13877
G1 X111.928 Y93.347 E.13877
G1 X113.294 Y93.347 E.04283
M204 S1000
G1 X113.673 Y92.97 F10800
M204 S800
;TYPE:External perimeter
G1 F1200
G1 X113.731 Y92.97 E.0018
G1 X113.731 Y95.97 E.09406
G1 X116.731 Y95.97 E.09406
G1 X116.731 Y98.15 E.06835
M73 Q8 S5
G1 X111.551 Y98.15 E.16242
G1 X111.551 Y92.97 E.16242
M73 P8 R5
G1 X113.613 Y92.97 E.06467
M204 S1000
G1 X113.719 Y93.005 F10800
;WIPE_START
G1 F8640
G1 X113.731 Y92.97 E-.02713
G1 X113.731 Y95.97 E-.69271
G1 X113.905 Y95.97 E-.04016
;WIPE_END
G1 E-.04 F2100
G1 Z.6 F720
G1 X115.457 Y96.46 F10800
G1 Z.2 F720
G1 E.8 F2100
M204 S800
;TYPE:Solid infill
;WIDTH:0.430036
G1 F1200
G1 X116.071 Y97.074 E.02794
G1 X116.071 Y97.49 E.01339
G1 X115.939 Y97.49 E.00423
G1 X115.079 Y96.63 E.03916
G1 X114.532 Y96.63 E.01762
G1 X115.392 Y97.49 E.03916
G1 X114.845 Y97.49 E.01762
G1 X113.815 Y96.46 E.04688
M204 S1000
;WIPE_START
G1 F8640
G1 X114.845 Y97.49 E-.33632
G1 X115.392 Y97.49 E-.12641
G1 X114.532 Y96.63 E-.28091
G1 X114.603 Y96.63 E-.01636
;WIPE_END
G1 E-.04 F2100
G1 Z.6 F720
G1 X113.241 Y94.244 F10800
G1 Z.2 F720
G1 E.8 F2100
M204 S800
G1 F1200
G1 X112.627 Y93.63 E.02794
G1 X112.211 Y93.63 E.01339
G1 X112.211 Y93.761 E.00423
G1 X113.071 Y94.621 E.03916
G1 X113.071 Y95.169 E.01762
G1 X112.211 Y94.308 E.03916
G1 X112.211 Y94.856 E.01762
G1 X113.241 Y95.886 E.04688
M204 S1000
;WIPE_START
G1 F8640
G1 X112.211 Y94.856 E-.33632
G1 X112.211 Y94.308 E-.12641
G1 X113.071 Y95.169 E-.28091
G1 X113.071 Y95.098 E-.01636
;WIPE_END
G1 E-.04 F2100
G1 Z.6 F720
G1 X112.041 Y95.234 F10800
G1 Z.2 F720
G1 E.8 F2100
M204 S800
G1 F1200
G1 X113.071 Y96.264 E.04688
G1 X113.071 Y96.63 E.01178
G1 X113.437 Y96.63 E.01178
G1 X114.297 Y97.49 E.03916
G1 X113.75 Y97.49 E.01762
G1 X112.211 Y95.951 E.07006
G1 X112.211 Y96.498 E.01762
G1 X113.202 Y97.49 E.04514
G1 X112.655 Y97.49 E.01762
G1 X112.041 Y96.876 E.02794
M204 S1000
; stop printing object bausteinLklein.stl id:3 copy 0
; printing object bausteinS.stl id:5 copy 0
;WIPE_START
G1 F8640
G1 X112.655 Y97.49 E-.20041
G1 X113.202 Y97.49 E-.12641
G1 X112.211 Y96.498 E-.32378
G1 X112.211 Y96.025 E-.1094
;WIPE_END
G1 E-.04 F2100
G1 Z.6 F720
G1 X107.434 Y94.841 F10800
G1 Z.2 F720
G1 E.8 F2100
M204 S800
;TYPE:Perimeter
;WIDTH:0.42
M73 Q9 S5
G1 F1200
G1 X104.434 Y94.841 E.09406
G1 X104.434 Y97.841 E.09406
G1 X103.008 Y97.841 E.04471
M73 P9 R5
G1 X103.008 Y93.415 E.13877
G1 X106.008 Y93.415 E.09406
G1 X106.008 Y90.415 E.09406
G1 X107.434 Y90.415 E.04471
G1 X107.434 Y94.781 E.13689
M204 S1000
G1 X107.811 Y95.218 F10800
M204 S800
;TYPE:External perimeter
G1 F1200
G1 X104.811 Y95.218 E.09406
G1 X104.811 Y98.218 E.09406
G1 X102.631 Y98.218 E.06835
G1 X102.631 Y93.038 E.16242
G1 X105.631 Y93.038 E.09406
G1 X105.631 Y90.038 E.09406
G1 X107.811 Y90.038 E.06835
G1 X107.811 Y95.158 E.16053
M204 S1000
G1 X107.441 Y95.066 F10800
;WIPE_START
G1 F8640
G1 X104.811 Y95.218 E-.69285
G1 X104.811 Y95.509 E-.06715
;WIPE_END
G1 E-.04 F2100
G1 Z.6 F720
G1 X106.539 Y90.529 F10800
G1 Z.2 F720
G1 E.8 F2100
M204 S800
;TYPE:Solid infill
;WIDTH:0.429291
G1 F1200
G1 X107.151 Y91.141 E.02782
G1 X107.151 Y91.687 E.01755
G1 X106.291 Y90.827 E.03908
G1 X106.291 Y91.373 E.01755
G1 X107.151 Y92.234 E.03908
G1 X107.151 Y92.78 E.01755
G1 X106.291 Y91.92 E.03908
G1 X106.291 Y92.466 E.01755
G1 X107.151 Y93.326 E.03908
G1 X107.151 Y93.873 E.01755
G1 X106.291 Y93.013 E.03908
G1 X106.291 Y93.559 E.01755
M73 Q10 S5
G1 X107.151 Y94.419 E.03908
G1 X107.151 Y94.558 E.00447
G1 X106.744 Y94.558 E.01308
G1 X105.884 Y93.698 E.03908
G1 X105.337 Y93.698 E.01755
G1 X106.197 Y94.558 E.03908
M73 P10 R5
G1 X105.651 Y94.558 E.01755
G1 X104.791 Y93.698 E.03908
G1 X104.244 Y93.698 E.01755
G1 X105.105 Y94.558 E.03908
G1 X104.558 Y94.558 E.01755
G1 X103.698 Y93.698 E.03908
G1 X103.291 Y93.698 E.01308
G1 X103.291 Y93.838 E.00448
G1 X104.151 Y94.698 E.03908
G1 X104.151 Y95.244 E.01755
G1 X103.291 Y94.384 E.03908
G1 X103.291 Y94.93 E.01755
G1 X104.151 Y95.791 E.03908
G1 X104.151 Y96.337 E.01755
G1 X103.291 Y95.477 E.03908
G1 X103.291 Y96.023 E.01755
G1 X104.151 Y96.883 E.03908
G1 X104.151 Y97.43 E.01755
G1 X103.291 Y96.57 E.03908
G1 X103.291 Y97.116 E.01755
G1 X103.903 Y97.728 E.02781
M204 S1000
; stop printing object bausteinS.stl id:5 copy 0
; printing object baustein4.stl id:0 copy 0
;WIPE_START
G1 F8640
G1 X103.291 Y97.116 E-.1999
G1 X103.291 Y96.57 E-.12617
G1 X104.151 Y97.43 E-.28091
G1 X104.151 Y96.883 E-.12617
G1 X104.069 Y96.801 E-.02685
;WIPE_END
G1 E-.04 F2100
G1 Z.6 F720
G1 X104.8 Y105.869 F10800
G1 Z.2 F720
G1 E.8 F2100
M204 S800
;TYPE:Perimeter
;WIDTH:0.42
G1 F1200
G1 X107.8 Y105.869 E.09406
G1 X107.8 Y107.295 E.04471
G1 X103.374 Y107.295 E.13877
G1 X103.374 Y102.869 E.13877
G1 X104.8 Y102.869 E.04471
G1 X104.8 Y105.809 E.09218
M204 S1000
G1 X105.177 Y105.492 F10800
M204 S800
;TYPE:External perimeter
G1 F1200
G1 X108.177 Y105.492 E.09406
G1 X108.177 Y107.672 E.06835
G1 X102.997 Y107.672 E.16242
G1 X102.997 Y102.492 E.16242
G1 X105.177 Y102.492 E.06835
G1 X105.177 Y105.432 E.09218
M204 S1000
M73 Q11 S5
G1 X105.26 Y105.883 F10800
;WIPE_START
G1 F8640
G1 X108.177 Y105.492 E-.69285
G1 X108.177 Y105.783 E-.06715
;WIPE_END
M73 P11 R5
G1 E-.04 F2100
G1 Z.6 F720
G1 X106.903 Y105.982 F10800
G1 Z.2 F720
G1 E.8 F2100
M204 S800
;TYPE:Solid infill
;WIDTH:0.430036
G1 F1200
G1 X107.517 Y106.596 E.02794
G1 X107.517 Y107.012 E.01339
G1 X107.385 Y107.012 E.00423
G1 X106.525 Y106.152 E.03916
G1 X105.978 Y106.152 E.01762
G1 X106.838 Y107.012 E.03916
G1 X106.29 Y107.012 E.01762
G1 X105.26 Y105.982 E.04688
M204 S1000
;WIPE_START
G1 F8640
G1 X106.29 Y107.012 E-.33632
G1 X106.838 Y107.012 E-.12641
G1 X105.978 Y106.152 E-.28091
G1 X106.048 Y106.152 E-.01636
;WIPE_END
G1 E-.04 F2100
G1 Z.6 F720
G1 X104.686 Y103.766 F10800
G1 Z.2 F720
G1 E.8 F2100
M204 S800
G1 F1200
G1 X104.073 Y103.152 E.02794
G1 X103.656 Y103.152 E.01339
G1 X103.656 Y103.283 E.00423
G1 X104.517 Y104.144 E.03916
G1 X104.517 Y104.691 E.01762
G1 X103.656 Y103.831 E.03916
G1 X103.656 Y104.378 E.01762
G1 X104.686 Y105.408 E.04688
M204 S1000
;WIPE_START
G1 F8640
G1 X103.656 Y104.378 E-.33632
G1 X103.656 Y103.831 E-.12641
G1 X104.517 Y104.691 E-.28091
G1 X104.517 Y104.62 E-.01636
;WIPE_END
G1 E-.04 F2100
G1 Z.6 F720
G1 X103.487 Y104.756 F10800
G1 Z.2 F720
G1 E.8 F2100
M204 S800
G1 F1200
G1 X104.517 Y105.786 E.04688
G1 X104.517 Y106.152 E.01178
G1 X104.883 Y106.152 E.01178
G1 X105.743 Y107.012 E.03916
G1 X105.195 Y107.012 E.01762
G1 X103.656 Y105.473 E.07006
G1 X103.656 Y106.021 E.01762
G1 X104.648 Y107.012 E.04514
G1 X104.101 Y107.012 E.01762
G1 X103.487 Y106.399 E.02794
M204 S1000
; stop printing object baustein4.stl id:0 copy 0
